applications/vlc.svg

<?xml version="1.0" encoding="UTF-8" standalone="no"?>
<!-- Created with Inkscape (http://www.inkscape.org/) -->

<svg
   xmlns:dc="http://purl.org/dc/elements/1.1/"
   xmlns:cc="http://creativecommons.org/ns#"
   xmlns:rdf="http://www.w3.org/1999/02/22-rdf-syntax-ns#"
   xmlns:svg="http://www.w3.org/2000/svg"
   xmlns="http://www.w3.org/2000/svg"
   xmlns:sodipodi="http://sodipodi.sourceforge.net/DTD/sodipodi-0.dtd"
   xmlns:inkscape="http://www.inkscape.org/namespaces/inkscape"
   width="48"
   height="48"
   id="svg4152"
   version="1.1"
   inkscape:version="0.91 r13725"
   viewBox="0 0 48 48"
   sodipodi:docname="vlc.svg">
  <defs
     id="defs4154">
    <filter
       style="color-interpolation-filters:sRGB;"
       inkscape:label="Drop Shadow"
       id="filter4161">
      <feFlood
         flood-opacity="0.298039"
         flood-color="rgb(0,0,0)"
         result="flood"
         id="feFlood4163" />
      <feComposite
         in="flood"
         in2="SourceGraphic"
         operator="in"
         result="composite1"
         id="feComposite4165" />
      <feGaussianBlur
         in="composite1"
         stdDeviation="0.8"
         result="blur"
         id="feGaussianBlur4167" />
      <feOffset
         dx="0"
         dy="0.4"
         result="offset"
         id="feOffset4169" />
      <feComposite
         in="SourceGraphic"
         in2="offset"
         operator="over"
         result="composite2"
         id="feComposite4171" />
    </filter>
    <filter
       style="color-interpolation-filters:sRGB"
       inkscape:label="Drop Shadow"
       id="filter4161-3">
      <feFlood
         flood-opacity="0.298039"
         flood-color="rgb(0,0,0)"
         result="flood"
         id="feFlood4163-6" />
      <feComposite
         in="flood"
         in2="SourceGraphic"
         operator="in"
         result="composite1"
         id="feComposite4165-7" />
      <feGaussianBlur
         in="composite1"
         stdDeviation="0.8"
         result="blur"
         id="feGaussianBlur4167-5" />
      <feOffset
         dx="0"
         dy="0.4"
         result="offset"
         id="feOffset4169-3" />
      <feComposite
         in="SourceGraphic"
         in2="offset"
         operator="over"
         result="composite2"
         id="feComposite4171-5" />
    </filter>
    <filter
       style="color-interpolation-filters:sRGB;"
       inkscape:label="Drop Shadow"
       id="filter4206"
       y="-0.29999999999999999"
       height="1.6000000000000001">
      <feFlood
         flood-opacity="0.298039"
         flood-color="rgb(0,0,0)"
         result="flood"
         id="feFlood4208" />
      <feComposite
         in="flood"
         in2="SourceGraphic"
         operator="in"
         result="composite1"
         id="feComposite4210" />
      <feGaussianBlur
         in="composite1"
         stdDeviation="0.8"
         result="blur"
         id="feGaussianBlur4212" />
      <feOffset
         dx="0"
         dy="0.4"
         result="offset"
         id="feOffset4214" />
      <feComposite
         in="SourceGraphic"
         in2="offset"
         operator="over"
         result="composite2"
         id="feComposite4216" />
    </filter>
    <clipPath
       clipPathUnits="userSpaceOnUse"
       id="clipPath4222">
      <path
         inkscape:connector-curvature="0"
         style="color:#000000;font-style:normal;font-variant:normal;font-weight:normal;font-stretch:normal;font-size:medium;line-height:normal;font-family:sans-serif;text-indent:0;text-align:start;text-decoration:none;text-decoration-line:none;text-decoration-style:solid;text-decoration-color:#000000;letter-spacing:normal;word-spacing:normal;text-transform:none;direction:ltr;block-progression:tb;writing-mode:lr-tb;baseline-shift:baseline;text-anchor:start;white-space:normal;clip-rule:nonzero;display:inline;overflow:visible;visibility:visible;opacity:1;isolation:auto;mix-blend-mode:normal;color-interpolation:sRGB;color-interpolation-filters:linearRGB;solid-color:#000000;solid-opacity:1;fill:#ff9800;fill-opacity:1;fill-rule:evenodd;stroke:none;stroke-width:4;stroke-linecap:round;stroke-linejoin:round;stroke-miterlimit:4;stroke-dasharray:none;stroke-dashoffset:0;stroke-opacity:1;color-rendering:auto;image-rendering:auto;shape-rendering:auto;text-rendering:auto;enable-background:accumulate"
         d="m 22,-27 c -0.838501,2.49e-4 -1.587845,0.523464 -1.876953,1.310547 L 9.6035156,3 7,3 C 5.892,3 5,3.892 5,5 l 0,4 c 0,1.108 0.892,2 2,2 l 34,0 c 1.108,0 2,-0.892 2,-2 L 43,5 C 43,3.892 42.108,3 41,3 L 38.396484,3 27.876953,-25.689453 C 27.587845,-26.476536 26.838501,-26.999751 26,-27 l -4,0 z"
         id="path4224" />
    </clipPath>
    <filter
       style="color-interpolation-filters:sRGB"
       inkscape:label="Drop Shadow"
       id="filter4161-1">
      <feFlood
         flood-opacity="0.298039"
         flood-color="rgb(0,0,0)"
         result="flood"
         id="feFlood4163-2" />
      <feComposite
         in="flood"
         in2="SourceGraphic"
         operator="in"
         result="composite1"
         id="feComposite4165-70" />
      <feGaussianBlur
         in="composite1"
         stdDeviation="0.8"
         result="blur"
         id="feGaussianBlur4167-9" />
      <feOffset
         dx="0"
         dy="0.4"
         result="offset"
         id="feOffset4169-36" />
      <feComposite
         in="SourceGraphic"
         in2="offset"
         operator="over"
         result="composite2"
         id="feComposite4171-0" />
    </filter>
    <clipPath
       clipPathUnits="userSpaceOnUse"
       id="clipPath4291">
      <path
         inkscape:connector-curvature="0"
         style="color:#000000;font-style:normal;font-variant:normal;font-weight:normal;font-stretch:normal;font-size:medium;line-height:normal;font-family:sans-serif;text-indent:0;text-align:start;text-decoration:none;text-decoration-line:none;text-decoration-style:solid;text-decoration-color:#000000;letter-spacing:normal;word-spacing:normal;text-transform:none;direction:ltr;block-progression:tb;writing-mode:lr-tb;baseline-shift:baseline;text-anchor:start;white-space:normal;clip-rule:nonzero;display:inline;overflow:visible;visibility:visible;opacity:1;isolation:auto;mix-blend-mode:normal;color-interpolation:sRGB;color-interpolation-filters:linearRGB;solid-color:#000000;solid-opacity:1;fill:#f57c00;fill-opacity:1;fill-rule:evenodd;stroke:none;stroke-width:4;stroke-linecap:round;stroke-linejoin:round;stroke-miterlimit:4;stroke-dasharray:none;stroke-dashoffset:0;stroke-opacity:1;color-rendering:auto;image-rendering:auto;shape-rendering:auto;text-rendering:auto;enable-background:accumulate"
         d="m 22,-27 c -0.838501,2.49e-4 -1.587845,0.523464 -1.876953,1.310547 L 9.6035156,3 7,3 C 5.892,3 5,3.892 5,5 l 0,4 c 0,1.108 0.892,2 2,2 l 34,0 c 1.108,0 2,-0.892 2,-2 L 43,5 C 43,3.892 42.108,3 41,3 L 38.396484,3 27.876953,-25.689453 C 27.587845,-26.476536 26.838501,-26.999751 26,-27 l -4,0 z"
         id="path4293" />
    </clipPath>
    <clipPath
       clipPathUnits="userSpaceOnUse"
       id="clipPath4295">
      <path
         inkscape:connector-curvature="0"
         style="color:#000000;font-style:normal;font-variant:normal;font-weight:normal;font-stretch:normal;font-size:medium;line-height:normal;font-family:sans-serif;text-indent:0;text-align:start;text-decoration:none;text-decoration-line:none;text-decoration-style:solid;text-decoration-color:#000000;letter-spacing:normal;word-spacing:normal;text-transform:none;direction:ltr;block-progression:tb;writing-mode:lr-tb;baseline-shift:baseline;text-anchor:start;white-space:normal;clip-rule:nonzero;display:inline;overflow:visible;visibility:visible;opacity:1;isolation:auto;mix-blend-mode:normal;color-interpolation:sRGB;color-interpolation-filters:linearRGB;solid-color:#000000;solid-opacity:1;fill:#f57c00;fill-opacity:1;fill-rule:evenodd;stroke:none;stroke-width:4;stroke-linecap:round;stroke-linejoin:round;stroke-miterlimit:4;stroke-dasharray:none;stroke-dashoffset:0;stroke-opacity:1;color-rendering:auto;image-rendering:auto;shape-rendering:auto;text-rendering:auto;enable-background:accumulate"
         d="m 22,-27 c -0.838501,2.49e-4 -1.587845,0.523464 -1.876953,1.310547 L 9.6035156,3 7,3 C 5.892,3 5,3.892 5,5 l 0,4 c 0,1.108 0.892,2 2,2 l 34,0 c 1.108,0 2,-0.892 2,-2 L 43,5 C 43,3.892 42.108,3 41,3 L 38.396484,3 27.876953,-25.689453 C 27.587845,-26.476536 26.838501,-26.999751 26,-27 l -4,0 z"
         id="path4297" />
    </clipPath>
  </defs>
  <sodipodi:namedview
     id="base"
     pagecolor="#ededed"
     bordercolor="#000000"
     borderopacity="0.49803922"
     inkscape:pageopacity="0"
     inkscape:pageshadow="2"
     inkscape:zoom="7.848108"
     inkscape:cx="5.1447318"
     inkscape:cy="34.657968"
     inkscape:current-layer="layer1"
     showgrid="false"
     inkscape:grid-bbox="true"
     inkscape:document-units="px"
     inkscape:showpageshadow="false"
     borderlayer="true"
     inkscape:window-width="1920"
     inkscape:window-height="1012"
     inkscape:window-x="0"
     inkscape:window-y="32"
     inkscape:window-maximized="1">
    <inkscape:grid
       type="xygrid"
       id="grid4700"
       color="#000000"
       opacity="0.0627451"
       empcolor="#000000"
       empopacity="0.1254902"
       empspacing="4"
       spacingx="2"
       spacingy="2" />
  </sodipodi:namedview>
  <metadata
     id="metadata4157">
    <rdf:RDF>
      <cc:Work
         rdf:about="">
        <dc:format>image/svg+xml</dc:format>
        <dc:type
           rdf:resource="http://purl.org/dc/dcmitype/StillImage" />
        <dc:title />
      </cc:Work>
    </rdf:RDF>
  </metadata>
  <g
     id="layer1"
     inkscape:label="Layer 1"
     inkscape:groupmode="layer"
     transform="translate(0,32)">
    <path
       style="color:#000000;font-style:normal;font-variant:normal;font-weight:normal;font-stretch:normal;font-size:medium;line-height:normal;font-family:sans-serif;text-indent:0;text-align:start;text-decoration:none;text-decoration-line:none;text-decoration-style:solid;text-decoration-color:#000000;letter-spacing:normal;word-spacing:normal;text-transform:none;direction:ltr;block-progression:tb;writing-mode:lr-tb;baseline-shift:baseline;text-anchor:start;white-space:normal;clip-rule:nonzero;display:inline;overflow:visible;visibility:visible;opacity:1;isolation:auto;mix-blend-mode:normal;color-interpolation:sRGB;color-interpolation-filters:linearRGB;solid-color:#000000;solid-opacity:1;fill:#f57c00;fill-opacity:1;fill-rule:evenodd;stroke:none;stroke-width:4;stroke-linecap:round;stroke-linejoin:round;stroke-miterlimit:4;stroke-dasharray:none;stroke-dashoffset:0;stroke-opacity:1;color-rendering:auto;image-rendering:auto;shape-rendering:auto;text-rendering:auto;enable-background:accumulate;filter:url(#filter4161)"
       d="M 22 5 C 21.161499 5.000249 20.412155 5.5234639 20.123047 6.3105469 L 9.6035156 35 L 7 35 C 5.892 35 5 35.892 5 37 L 5 41 C 5 42.108 5.892 43 7 43 L 41 43 C 42.108 43 43 42.108 43 41 L 43 37 C 43 35.892 42.108 35 41 35 L 38.396484 35 L 27.876953 6.3105469 C 27.587845 5.5234639 26.838501 5.000249 26 5 L 22 5 z "
       transform="translate(0,-32)"
       id="path4140" />
    <rect
       style="color:#000000;clip-rule:nonzero;display:inline;overflow:visible;visibility:visible;opacity:1;isolation:auto;mix-blend-mode:normal;color-interpolation:sRGB;color-interpolation-filters:linearRGB;solid-color:#000000;solid-opacity:1;fill:#ff9800;fill-opacity:1;fill-rule:evenodd;stroke:none;stroke-width:0.1;stroke-linecap:round;stroke-linejoin:round;stroke-miterlimit:4;stroke-dasharray:none;stroke-dashoffset:0;stroke-opacity:0.25098039;color-rendering:auto;image-rendering:auto;shape-rendering:auto;text-rendering:auto;enable-background:accumulate;filter:url(#filter4206)"
       id="rect4142"
       width="38"
       height="7.9999981"
       x="5"
       y="3"
       ry="2"
       rx="2"
       clip-path="url(#clipPath4222)" />
    <rect
       style="color:#000000;clip-rule:nonzero;display:inline;overflow:visible;visibility:visible;opacity:1;isolation:auto;mix-blend-mode:normal;color-interpolation:sRGB;color-interpolation-filters:linearRGB;solid-color:#000000;solid-opacity:1;fill:#fff3e0;fill-opacity:1;fill-rule:evenodd;stroke:none;stroke-width:4;stroke-linecap:round;stroke-linejoin:round;stroke-miterlimit:4;stroke-dasharray:none;stroke-dashoffset:0;stroke-opacity:1;color-rendering:auto;image-rendering:auto;shape-rendering:auto;text-rendering:auto;enable-background:accumulate"
       id="rect4226"
       width="32"
       height="6.999999"
       x="8"
       y="-9"
       rx="0"
       ry="0"
       clip-path="url(#clipPath4295)" />
    <rect
       style="color:#000000;clip-rule:nonzero;display:inline;overflow:visible;visibility:visible;opacity:1;isolation:auto;mix-blend-mode:normal;color-interpolation:sRGB;color-interpolation-filters:linearRGB;solid-color:#000000;solid-opacity:1;fill:#fff3e0;fill-opacity:1;fill-rule:evenodd;stroke:none;stroke-width:4;stroke-linecap:round;stroke-linejoin:round;stroke-miterlimit:4;stroke-dasharray:none;stroke-dashoffset:0;stroke-opacity:1;color-rendering:auto;image-rendering:auto;shape-rendering:auto;text-rendering:auto;enable-background:accumulate"
       id="rect4226-9"
       width="32"
       height="6.999999"
       x="8"
       y="-21"
       rx="0"
       ry="0"
       clip-path="url(#clipPath4291)" />
  </g>
</svg>

<svg 
    xmlns="http://www.w3.org/2000/svg" width="48" height="48">
    <defs>
        <filter id="a">
            <feGaussianBlur in="SourceAlpha" stdDeviation=".8"/>
            <feOffset dy=".4"/>
            <feComponentTransfer>
                <feFuncA slope=".3" type="linear"/>
            </feComponentTransfer>
            <feMerge>
                <feMergeNode/>
                <feMergeNode in="SourceGraphic"/>
            </feMerge>
        </filter>
        <clipPath id="b">
            <path fill="#ff9800" fill-rule="evenodd" d="M22-27a2 2 0 0 0-1.877 1.31L9.603 3H7c-1.108 0-2 .892-2 2v4c0 1.108.892 2 2 2h34c1.108 0 2-.892 2-2V5c0-1.108-.892-2-2-2h-2.604L27.877-25.69A2 2 0 0 0 26-27h-4z"/>
        </clipPath>
        <clipPath id="e">
            <path fill="#f57c00" fill-rule="evenodd" d="M22-27a2 2 0 0 0-1.877 1.31L9.603 3H7c-1.108 0-2 .892-2 2v4c0 1.108.892 2 2 2h34c1.108 0 2-.892 2-2V5c0-1.108-.892-2-2-2h-2.604L27.877-25.69A2 2 0 0 0 26-27h-4z"/>
        </clipPath>
        <clipPath id="d">
            <path fill="#f57c00" fill-rule="evenodd" d="M22-27a2 2 0 0 0-1.877 1.31L9.603 3H7c-1.108 0-2 .892-2 2v4c0 1.108.892 2 2 2h34c1.108 0 2-.892 2-2V5c0-1.108-.892-2-2-2h-2.604L27.877-25.69A2 2 0 0 0 26-27h-4z"/>
        </clipPath>
    </defs>
    <g fill-rule="evenodd" transform="translate(0 32)">
        <path fill="#f57c00" d="M22 5a2 2 0 0 0-1.877 1.31L9.603 35H7c-1.108 0-2 .892-2 2v4c0 1.108.892 2 2 2h34c1.108 0 2-.892 2-2v-4c0-1.108-.892-2-2-2h-2.604L27.877 6.31A2 2 0 0 0 26 5h-4z" filter="url(#a)" transform="translate(0 -32)"/>
        <rect fill="#ff9800" width="38" height="8" x="5" y="3" clip-path="url(#b)" filter="url(#a)" rx="2" ry="2"/>
        <rect fill="#fff3e0" width="32" height="7" x="8" y="-9" clip-path="url(#d)" rx="0" ry="0"/>
        <rect fill="#fff3e0" width="32" height="7" x="8" y="-21" clip-path="url(#e)" rx="0" ry="0"/>
    </g>
</svg>
